X: 0
T: Freeford Gardens
C: Kathryn & David Wright
N: Tune: Edgeworth Bumpkins
P: Edgeworth Bumpkins   [F]
O: Daniel Wright 1740
N: Tune for the dance Freeford Gardens
B: Daniel Wright "Wright's Compleat Collection of Celebrated Country Dances" p.33 1740
M: C|
L: 1/8
K: F
c2 \
| "F"A3G F2A2 | "C7"G2FE "F"F2f2 | "C7"e2dc "Bb"d2cB | "F"A2F2- F2A2 \
| "C7"G2FE "F"F2A2 | "C7"G2FE "F"FGAB | c2B2- "Bb"B2A2 | "C7"G6 :|
|: c2 \
| "Bb"d2cB "F"ABc2 | FGA2 "Bb"B4 | "Gm"Bcd2 G2d2 | "C7"gab2 e4 \
| "F"f2e2- "C"e2d2- | "Bb"d2c2- "C"c2B2- | "Bb"B2AB "C7"G2FE | "F"F6 :|
P: Edgeworth Bumpkins   [G]
O: Daniel Wright 1740
N: Tune for the dance Freeford Gardens
B: Daniel Wright "Wright's Compleat Collection of Celebrated Country Dances" p.33 1740
M: C|
M: C|
L: 1/8
K: G
d2 \
| "G"B3A G2B2 | "D7"A2GF "G"G2g2 | "D7"f2ed "C"e2dc | "G"B2G2- G2B2 \
| "D7"A2GF "G"G2B2 | "D7"A2GF "G"GABc | d2c2- "C"c2B2 | "D7"A6 :|
|: d2 \
| "C"e2dc "G"Bcd2 | GAB2 "C"c4 | "Am"cde2 A2e2 | "D7"abc'2 f4 \
| "G"g2f2- "D"f2e2- | "C"e2d2- "D"d2c2- | "C"c2Bc "D7"A2GF | "G"G6 :|

%%sep 1 1 500


